X: 1
T:Murdo's Wedding
M:C
L:1/8
Q:80
C:March
S:
K:HP
[| {g}A2{GdGe}AB{G}A2{g}ce|
{ag}a2fd{gef}e4|
{g}A2{GdGe}AB{G}A2{g}ce|  !
{g}f3/2e/2{g}dc{gBd}B2{g}e3/2c/2|
{g}A2{GdGe}AB{G}A2{g}ce|
{ag}a2fd{gef}e4|  !
{ag}a2fd{g}e2{Gdc}d3/2B/2|
{g}A4{GAG}A4|]
{ag}a2fd{g}e2{AGAG}A2|  !
{ag}a2fd{gef}e4|
{g}A2{GdGe}AB{G}A2{g}ce|
{g}f3/2e/2{g}dc{gBd}B2{g}e3/2c/2|  !
{g}A2{GdGe}AB{G}A2{g}ce|
{ag}a2fd{gef}e4|
{ag}a2fd{g}e2{Gdc}d3/2B/2|  !
{g}A4{GAG}A4|]
